X:276
T:Lady Catherine Ogle,a new dance. (p)1687.PLFD.276
M:4/4
L:1/8
Q:1/2=110
S:Playford, Dancing Master,7th Ed,1st Supp,1687.
O:England
H:1687.
Z:Chris Partington
K:Bb
G|D2G2G3A|B2G2G3c|c3d (cB)(GF)|F3GA3(G/F/)|
D2G2G3A|B2G2G2f2|d2cd (fd)(cA)|G4B3:|
|:A|(Bc)(de) (fe)(dc)|(Bc)(d=e)f3c|A2f2(cA)(GF)|F3GA3(G/A/)|
B2G2G3A|B2G2f3g|(ag)(fe) (cd)(cA)|G4B3:|
